assets/sonr-icons/social-messenger.svg

<svg xmlns="http://www.w3.org/2000/svg" width="24" height="24" fill="none" viewBox="0 0 24 24"><path fill="#000" d="M12 2.00002C11.896 1.99602 11.773 1.99402 11.65 1.99402C6.32102 1.99402 2.00002 6.31502 2.00002 11.644C2.00002 11.664 2.00002 11.684 2.00002 11.703V11.7C1.99902 11.735 1.99902 11.777 1.99902 11.818C1.99902 14.616 3.20802 17.133 5.13202 18.872L5.14002 18.88C5.29602 19.019 5.39702 19.217 5.41002 19.438V21.22C5.42902 21.653 5.78302 21.996 6.21902 21.996C6.33502 21.996 6.44502 21.972 6.54502 21.928L6.54002 21.93L8.54002 21.06C8.61902 21.029 8.71002 21.012 8.80502 21.012C8.90002 21.012 8.99102 21.03 9.07502 21.062L9.07002 21.06C9.92902 21.302 10.917 21.44 11.937 21.44C11.949 21.44 11.96 21.44 11.972 21.44H11.97C11.975 21.44 11.98 21.44 11.985 21.44C17.353 21.44 21.705 17.088 21.705 11.72C21.705 6.35702 17.362 2.00802 12.001 2.00002L12 1.99802V2.00002ZM18 9.46002L15.07 14.12C14.8 14.544 14.333 14.82 13.801 14.82C13.461 14.82 13.148 14.707 12.896 14.517L12.9 14.52L10.56 12.77C10.461 12.695 10.336 12.65 10.2 12.65C10.064 12.65 9.93902 12.695 9.83902 12.771L9.84102 12.77L6.68102 15.17C6.60202 15.231 6.50302 15.268 6.39402 15.268C6.13402 15.268 5.92402 15.057 5.92402 14.798C5.92402 14.702 5.95302 14.613 6.00202 14.539L6.00102 14.541L8.93102 9.88102C9.20102 9.45702 9.66802 9.18102 10.2 9.18102C10.54 9.18102 10.853 9.29402 11.105 9.48402L11.101 9.48102L13.441 11.231C13.54 11.306 13.665 11.351 13.801 11.351C13.937 11.351 14.062 11.306 14.162 11.23L14.161 11.231L17.321 8.83102C17.4 8.77002 17.499 8.73302 17.608 8.73302C17.867 8.73302 18.078 8.94402 18.078 9.20302C18.078 9.29902 18.049 9.38802 18 9.46302L18.001 9.46102L18 9.46002Z"/></svg>

<svg xmlns="http://www.w3.org/2000/svg" width="24" height="24" fill="none"><path fill="currentColor" d="M12 2a9 9 0 0 0-.35-.006C6.321 1.994 2 6.315 2 11.644v.059-.003l-.001.118a9.48 9.48 0 0 0 3.133 7.054l.008.008a.8.8 0 0 1 .27.558v1.782a.81.81 0 0 0 1.135.708l-.005.002 2-.87a.757.757 0 0 1 .535.002l-.005-.002c.859.242 1.847.38 2.867.38h.035-.002.015c5.368 0 9.72-4.352 9.72-9.72 0-5.363-4.343-9.712-9.704-9.72L12 1.998zm6 7.46-2.93 4.66a1.5 1.5 0 0 1-2.174.397l.004.003-2.34-1.75a.595.595 0 0 0-.721.001l.002-.001-3.16 2.4a.47.47 0 0 1-.679-.631l-.001.002 2.93-4.66a1.5 1.5 0 0 1 2.174-.397l-.004-.003 2.34 1.75a.595.595 0 0 0 .721-.001l-.001.001 3.16-2.4a.47.47 0 0 1 .679.632l.001-.002z"/></svg>
